icons/svg/behance.svg

﻿<?xml version="1.0" encoding="utf-8"?>
<!DOCTYPE svg PUBLIC "-//W3C//DTD SVG 1.1//EN" "http://www.w3.org/Graphics/SVG/1.1/DTD/svg11.dtd">
<svg xmlns="http://www.w3.org/2000/svg" xmlns:xlink="http://www.w3.org/1999/xlink" version="1.1" baseProfile="full" width="24" height="24" viewBox="0 0 24.00 24.00" enable-background="new 0 0 24.00 24.00" xml:space="preserve">
	<path fill="#000000" fill-opacity="1" stroke-width="0.2" stroke-linejoin="round" d="M 19.5818,12.2734C 19.5379,11.654 19.3309,11.1848 18.9589,10.8646C 18.5891,10.543 18.1276,10.3816 17.5772,10.3816C 16.9778,10.3816 16.5155,10.5543 16.1864,10.893C 15.8557,11.2312 15.6495,11.6913 15.5653,12.2734M 21.9232,12.0413C 21.9839,12.4485 22.0108,13.0392 22,13.8113L 15.5093,13.8113C 15.5453,14.7076 15.8544,15.3339 16.4412,15.6924C 16.7946,15.9173 17.2234,16.0271 17.7261,16.0271C 18.2552,16.0271 18.6872,15.8931 19.0197,15.6179C 19.2007,15.4722 19.3604,15.2661 19.4984,15.0066L 21.8776,15.0066C 21.8151,15.5355 21.5286,16.0725 21.0142,16.6178C 20.2164,17.4844 19.0978,17.9193 17.6614,17.9193C 16.4747,17.9193 15.4286,17.5526 14.5209,16.8221C 13.6158,16.0891 13.1614,14.9001 13.1614,13.2508C 13.1614,11.7042 13.5694,10.5207 14.3881,9.69665C 15.2098,8.87099 16.2702,8.4603 17.5772,8.4603C 18.352,8.4603 19.0505,8.59852 19.6734,8.87722C 20.2949,9.15593 20.808,9.59462 21.2126,10.1974C 21.5781,10.7281 21.8138,11.3419 21.9232,12.0413 Z M 9.57807,14.0658C 9.57807,13.419 9.31373,12.9723 8.78632,12.7325C 8.4916,12.5963 8.07531,12.5267 7.54183,12.5216L 4.87054,12.5216L 4.87054,15.8382L 7.5006,15.8382C 8.0406,15.8382 8.45904,15.7678 8.76072,15.62C 9.30504,15.3486 9.57807,14.8323 9.57807,14.0658 Z M 4.87054,10.4612L 7.50407,10.4612C 8.04493,10.4612 8.48291,10.358 8.81975,10.1527C 9.15616,9.94733 9.32416,9.58241 9.32416,9.05834C 9.32416,8.4794 9.10191,8.09513 8.65566,7.91022C 8.27238,7.78176 7.78188,7.71553 7.18677,7.71553L 4.87054,7.71553M 11.7155,12.4207C 12.0389,12.9212 12.2003,13.5297 12.2003,14.2434C 12.2003,14.9819 12.018,15.6442 11.6473,16.2293C 11.4116,16.6167 11.1186,16.9439 10.767,17.207C 10.3707,17.5115 9.90146,17.7202 9.36234,17.832C 8.82148,17.9437 8.23593,18 7.60521,18L 2,18L 2,5.55419L 8.01064,5.55419C 9.526,5.5791 10.5999,6.01778 11.2341,6.87988C 11.6148,7.40861 11.8032,8.04312 11.8032,8.78032C 11.8032,9.54128 11.6122,10.15 11.228,10.6127C 11.0144,10.8719 10.6984,11.1079 10.2804,11.3208C 10.9137,11.5528 11.3942,11.9178 11.7155,12.4207 Z M 20.064,7.31572L 15.0518,7.31572L 15.0518,6.07069L 20.064,6.07069L 20.064,7.31572 Z "/>
</svg>

<svg xmlns="http://www.w3.org/2000/svg" version="1.1" baseProfile="full" width="24" height="24" viewBox="0 0 24.00 24.00" xml:space="preserve"><path fill="#000" fill-opacity="1" stroke-width=".2" stroke-linejoin="round" d="M19.582 12.273c-.044-.62-.25-1.088-.623-1.408-.37-.322-.832-.483-1.383-.483-.6 0-1.062.172-1.39.51-.33.34-.538.8-.622 1.38m6.358-.23c.06.406.088.997.077 1.77h-6.49c.035.896.344 1.522.93 1.88.355.225.783.335 1.286.335.53 0 .96-.134 1.294-.41.18-.145.34-.35.478-.61h2.38c-.063.53-.35 1.066-.864 1.61-.798.867-1.916 1.302-3.353 1.302-1.185 0-2.23-.367-3.14-1.098-.904-.733-1.36-1.922-1.36-3.57 0-1.548.41-2.73 1.228-3.555.822-.826 1.882-1.237 3.19-1.237.774 0 1.473.14 2.095.417.622.28 1.135.718 1.54 1.32.365.53.6 1.145.71 1.844zM9.578 14.065c0-.647-.264-1.094-.792-1.334-.294-.136-.71-.205-1.244-.21h-2.67v3.316H7.5c.54 0 .957-.07 1.26-.218.543-.27.816-.788.816-1.554zM4.87 10.46h2.634c.54 0 .98-.102 1.316-.307.336-.206.504-.57.504-1.095 0-.58-.222-.963-.668-1.148-.384-.128-.874-.194-1.47-.194H4.872m6.846 4.705c.323.5.484 1.11.484 1.823 0 .74-.182 1.4-.553 1.986-.235.387-.528.714-.88.977-.396.305-.866.513-1.405.625-.54.112-1.126.168-1.757.168H2V5.554h6.01c1.516.025 2.59.464 3.224 1.326.38.53.57 1.163.57 1.9 0 .76-.192 1.37-.576 1.833-.214.26-.53.495-.948.708.634.233 1.114.598 1.436 1.1zm8.348-5.104h-5.012V6.07h5.012v1.246z"/></svg>
